X: 7361
T: Cliffs Of Moher, The
R: jig
M: 6/8
K: Adorian
|:a3 bag|eaf ged|c2A BAG|EFG AB/c/d|
eaa bag|eaf ged|c2A BAG|EFG A3:|
|:e3 dBA|e3 dBA|GAB dBA|GAB dB/c/d|
e3 dBA|e3 dBA|GAB dBA|EFG A3|
e3 dBA|e3 dBA|GAB dBA|GAB dB/c/d|
e3 dB/c/d|cdc B3|GAB dBA|EFG A3|

